X:19
T:Merrily Kiss the Quaker                                                                           
M:6/8                                                                                               
K:G                                                                                                 
L:1/8                                                                                               
D| GAB DEG|cBA BGE|GAB DEG|ABA AGE|                                                                 
GAB DEG|cBA BGE|GAB D2 E|1 G2 G G2 D :|2 G2 G G A |                                                 
|:BGG AGG|BGG AGE|GAB DEG|ABA AGA|                                                                  
BGG AGG|BGG AGE|GAB D2 E|1 G2 G G2 A :|2G2 G G2 d |                                                 
|:g2 g aga|bge dBd|g2 g gab|a3 age|                                                                 
gbg faf|e/f/ge dBA|GAB D2 E|1 G2 G G2 d:|2 G2 G G2 ||
